img/paw_test.svg

<svg width="368" height="315" viewBox="0 0 368 315" fill="none" xmlns="http://www.w3.org/2000/svg">
<path d="M293.731 200.515C241.924 170.857 250.747 84.2854 306.943 84.2854C331.18 84.2854 352.155 102.472 361.495 125.724C383.063 179.424 338.211 225.987 293.731 200.515Z" fill="#FAC663"/>
<path d="M240.523 189.795C302.682 189.795 321.294 295.158 262.239 312.48C235.334 320.369 204.739 301.439 194.912 266.834C183.886 228.047 205.578 189.795 240.523 189.795Z" fill="#FAC663"/>
<path d="M224.536 2.24686C215.903 4.62893 200.582 6.16333 184.546 6.38502C167.594 6.63279 149.846 5.42005 138.363 2.24686C107.349 -6.37726 65.148 14.4875 74.4074 57.8211C82.9721 97.8815 113.745 95.5994 121.022 133.565C128.354 171.934 156.848 190.452 184.546 189.004C210.181 187.661 235.129 169.209 241.928 133.556C249.163 95.5647 279.872 97.8685 288.424 57.8211C297.717 14.4528 255.427 -6.29901 224.536 2.24686Z" fill="#FAC663"/>
<path d="M131.123 189.791C148.705 189.791 163.806 199.985 172.197 215.585C197.141 261.975 156.173 326.195 109.402 312.442C50.2455 295.072 68.9971 189.791 131.123 189.791Z" fill="#FAC663"/>
<path d="M103.027 118.782C122.986 167.527 75.6763 227.07 30.4934 208.335C-23.9321 185.771 0.0720515 88.4496 59.915 88.4496C79.12 88.4496 95.4404 100.251 103.027 118.782Z" fill="#FAC663"/>
</svg>

<svg width="368" height="315" fill="none" xmlns="http://www.w3.org/2000/svg"><path d="M293.731 200.515c-51.807-29.658-42.984-116.23 13.212-116.23 24.237 0 45.212 18.187 54.552 41.439 21.568 53.7-23.284 100.263-67.764 74.791zm-53.208-10.72c62.159 0 80.771 105.363 21.716 122.685-26.905 7.889-57.5-11.041-67.327-45.646-11.026-38.787 10.666-77.039 45.611-77.039z" fill="#FAC663"/><path d="M224.536 2.247c-8.633 2.382-23.954 3.916-39.99 4.138-16.952.248-34.7-.965-46.183-4.138-31.014-8.624-73.215 12.24-63.956 55.574 8.565 40.06 39.338 37.778 46.615 75.744 7.332 38.369 35.826 56.887 63.524 55.439 25.635-1.343 50.583-19.795 57.382-55.448 7.235-37.991 37.944-35.688 46.496-75.735 9.293-43.368-32.997-64.12-63.888-55.574zm-93.413 187.544c17.582 0 32.683 10.194 41.074 25.794 24.944 46.39-16.024 110.61-62.795 96.857-59.157-17.37-40.405-122.651 21.721-122.651z" fill="#FAC663"/><path d="M103.027 118.782c19.959 48.745-27.35 108.288-72.534 89.553C-23.932 185.771.073 88.45 59.915 88.45c19.205 0 35.525 11.801 43.112 30.332z" fill="#FAC663"/></svg>
